X: 21439
T: Kevin Keegan's
R: waltz
M: 3/4
K: Gmajor
|DEFGA|:SB4B>d|c2B2 c>^c|d2 g2 B>e|d3e dc|
BGD GBd|(3cdc A2>G2|(3FFF Ad D3|(3FFF Ad D3|
BGD GBd|c2B2 c>^c|d2 g2 B>e|d3e dc|
BGD GBd|(3cdc A2FA|1 G6|G DEFGA:|2 Gz3G/G/z|G2B2d2||
|:g2 fg af|(3gag (3fgf (3efe|d2 g2 B>e|d3e dc|
BGD GBd|(3cdc A3G|(3FFF Ad D3|(3FFF Ad D3|
[1 gz3g/g/z|(3gag (3fgf (3efe|d2 g2 B>e|d3e dc|
BGD GBd|c2 A2 FA|Gz3G/G/z|G2B2d2:|2 B4B>d|c2B2 c>^c|d2 g2 B>e|d3e dc|
BGD GBd|(3cdc A2 FA|Gz3G/G/z|GDEFGA"D.S."|

